X:344
T: WENN MICH DAS GLUECK BETRIFFT
N: E0973
O: Europa, Mitteleuropa, Deutschland, Friesack, Viegnitz
R: Tanz - Lied, Reigen
M: 3/4
L: 1/4
K: G
 | DGG | GFA
DAA | AGB
GBB | BAc
cFF | G2G
DGG | GFA
DAA | AGB
GBB | BAc
cFF | G2G
Bdd | dce
Acc | cBd
GBB | BAc
cFF | A2G
Bdd | dce
Acc | cBd
GBB | BAc
cFF | A2G

